canopeum_frontend/src/assets/icons/site-propagation.svg

<svg width="24" height="24" viewBox="0 0 24 24" fill="none" xmlns="http://www.w3.org/2000/svg">
<path fill-rule="evenodd" clip-rule="evenodd" d="M13.9178 5.92553C13.8344 6.22108 14.0347 6.52123 14.3396 6.55773L15.6465 6.71418C16.6554 6.83496 17.4382 7.691 17.4382 8.72624C17.4382 9.12092 17.3263 9.48467 17.1329 9.79358L16.3864 10.9865C16.2153 11.26 16.344 11.6215 16.6495 11.7252L17.9901 12.1804C18.795 12.4536 19.37 13.2117 19.37 14.0991C19.37 15.2185 18.4565 16.1259 17.3295 16.1259C16.7887 16.1259 16.3 15.919 15.9337 15.5774L14.8182 14.5375L13.7027 15.5774C13.3363 15.919 12.8477 16.1259 12.3068 16.1259C11.8166 16.1259 11.3706 15.9562 11.0188 15.6712L9.98864 14.8367L8.95847 15.6712C8.60668 15.9562 8.16071 16.1259 7.67045 16.1259C6.54353 16.1259 5.62997 15.2185 5.62997 14.0991C5.62997 13.2763 6.1237 12.5646 6.83976 12.2468L8.06659 11.7025C8.35194 11.5759 8.45277 11.2216 8.27687 10.9637L7.52442 9.8605C7.30407 9.53742 7.17543 9.1492 7.17543 8.72624C7.17543 7.691 7.95825 6.83496 8.96715 6.71418L10.274 6.55773C10.5789 6.52123 10.7792 6.22108 10.6958 5.92553L10.3416 4.66994C10.2929 4.49719 10.2663 4.31348 10.2663 4.12095C10.2663 3.00158 11.1799 2.09415 12.3068 2.09415C13.4337 2.09415 14.3473 3.00158 14.3473 4.12095C14.3473 4.31348 14.3207 4.4972 14.272 4.66994L13.9178 5.92553ZM15.8415 5.10677C16.2202 5.1521 16.5811 5.25471 16.9153 5.40561C18.1852 5.97913 19.0682 7.25026 19.0682 8.72624C19.0682 8.85835 19.0611 8.98881 19.0473 9.11728C18.9875 9.67482 18.8011 10.1948 18.5173 10.6483C19.0434 10.827 19.5157 11.121 19.9035 11.5C20.5803 12.1613 21 13.0815 21 14.0991C21 16.1126 19.3567 17.7449 17.3295 17.7449C16.3581 17.7449 15.4747 17.37 14.8182 16.758C14.3786 17.1677 13.8374 17.4712 13.2362 17.6271V21.5237H15.9531V23.1428H8.88989V21.5237H11.6062V17.6786C11.0008 17.5624 10.4484 17.2984 9.98864 16.9259C9.3566 17.4379 8.54963 17.7449 7.67045 17.7449C5.64332 17.7449 4 16.1126 4 14.0991C4 13.072 4.42753 12.1442 5.11546 11.4816C5.42189 11.1864 5.77998 10.9438 6.17497 10.7686C5.93769 10.4207 5.75934 10.0299 5.65413 9.61041C5.58314 9.32733 5.54545 9.03116 5.54545 8.72624C5.54545 7.25027 6.42845 5.97914 7.69835 5.40562C8.0325 5.25471 8.39343 5.1521 8.77212 5.10677C8.68366 4.79321 8.63636 4.46257 8.63636 4.12095C8.63636 4.08161 8.63699 4.04241 8.63824 4.00336C8.70073 2.04423 10.3193 0.475098 12.3068 0.475098C14.2943 0.475098 15.9129 2.04423 15.9754 4.00336C15.9766 4.04241 15.9773 4.08161 15.9773 4.12095C15.9773 4.46257 15.93 4.79321 15.8415 5.10677ZM11.4762 8H12.7262V9.87517H14.6013V11.1252H12.7262V13H11.4762V11.1252H9.60132V9.87517H11.4762V8Z" fill="#007E51"/>
</svg>

<svg width="24" height="24" fill="none" xmlns="http://www.w3.org/2000/svg">
  <path fill-rule="evenodd" clip-rule="evenodd"
    d="M13.918 5.926a.5.5 0 00.422.632l1.306.156a2.032 2.032 0 011.792 2.012 2 2 0 01-.305 1.068l-.747 1.192a.5.5 0 00.264.74l1.34.454a2.03 2.03 0 011.38 1.92c0 1.119-.914 2.026-2.04 2.026-.541 0-1.03-.207-1.396-.549l-1.116-1.04-1.115 1.04a2.035 2.035 0 01-1.396.549c-.49 0-.936-.17-1.288-.455l-1.03-.834-1.03.834a2.034 2.034 0 01-1.289.455 2.034 2.034 0 01-2.04-2.027c0-.823.494-1.534 1.21-1.852l1.227-.544a.5.5 0 00.21-.74l-.753-1.102a2 2 0 01-.349-1.135c0-1.035.783-1.891 1.792-2.012l1.307-.156a.5.5 0 00.422-.632l-.354-1.256a2.034 2.034 0 011.965-2.576 2.034 2.034 0 011.965 2.576l-.354 1.256zm1.924-.82c.378.046.74.149 1.073.3a3.645 3.645 0 012.132 3.711 3.607 3.607 0 01-.53 1.531c.526.179.999.473 1.387.852A3.623 3.623 0 0121 14.1c0 2.013-1.643 3.645-3.67 3.645a3.671 3.671 0 01-2.512-.987c-.44.41-.98.713-1.582.87v3.896h2.717v1.619H8.89v-1.62h2.716V17.68a3.666 3.666 0 01-1.617-.753 3.67 3.67 0 01-2.319.819c-2.027 0-3.67-1.632-3.67-3.646 0-1.027.428-1.955 1.115-2.617a3.677 3.677 0 011.06-.713 3.616 3.616 0 01-.63-2.043c0-1.476.883-2.747 2.153-3.32.335-.151.695-.254 1.074-.3a3.626 3.626 0 01-.134-1.103C8.701 2.044 10.32.475 12.307.475c1.987 0 3.606 1.57 3.668 3.528.002.04.002.079.002.118 0 .342-.047.672-.136.986zM11.476 8h1.25v1.875h1.875v1.25h-1.875V13h-1.25v-1.875H9.601v-1.25h1.875V8z"
    fill="#007E51" />
</svg>
